X:4644
T:no name Nr. 1 in Raheen Medley
O:england
N:IrTrad, 6/99
M:4/4
L:1/8
S:Patrick Street
R:reel
D:Life from Patrick Street
K:G
B|cA BG A3 B|cA BG AG ED|G3 GzA Bc|dB GB d3 B|
cA BG A3 B|cA BG AG ED|Ae ef ga ge |dB GB A2 AB|
(3cBA BG A3 B|(3cBA|BG AG ED|G3 GzA Bc|dB GB d3 B|
cA BG A3 B|cA BG AG ED|Ae ef ga ge |dB GB A2 (3Bcd||
ea ab a2{b} ag|ed ef gd dd|ed ef g2{a} gf|ed ef ge df|
ea ab a2 ag|ed ef gd dd|ed ef ga ge|dB GB A2  (3Bcd|
ea ab a2{b} ag|ed ef gd dd|ed ef g2{a} gf|ed ef ge df|
ea ab a2 ag|ed ef gd dd|ed ef ga ge|dB GB A3 B||
(3cBA BG A3 B|(3cBA|BG AG ED|G3 GzA Bc|dB GB d3 B|
cA BG A3 B|cA BG AG ED|Ae ef ga ge |dB GB A2 AB|
(3cBA BG A3 B|(3cBA|BG AG ED|G3 GzA Bc|dB GB d3 B|
cA BG A3 B|cA BG AG ED|Ae ef ga ge |dB GB A2 (3Bcd||
ea ab a2{b} ag|ed ef gd dd|ed ef g2{a} gf|ed ef ge df|
ea ab a2 ag|ed ef gd dd|ed ef ga ge|dB GB A2  (3Bcd|
ea ab a2{b} ag|ed ef gd dd|ed ef g2{a} gf|ed ef ge df|
ea ab a2 ag|ed ef gd dd|ed ef ga ge|dB GB A3 B||


